resources/svg/browsers-bold.svg

<svg xmlns="http://www.w3.org/2000/svg" viewBox="0 0 256 256" fill="currentColor"><path d="M220.00781,32h-144a20.02244,20.02244,0,0,0-20,20V72h-20a20.02244,20.02244,0,0,0-20,20v31.84521C16.00732,123.89746,16,123.94775,16,124s.00732.10254.00781.15479V204a20.0226,20.0226,0,0,0,20,20h144a20.0226,20.0226,0,0,0,20-20V184h20a20.0226,20.0226,0,0,0,20-20V52A20.02244,20.02244,0,0,0,220.00781,32Zm-44,64v16h-136V96Zm0,104h-136V136h136Zm40-40h-16V92a20.02244,20.02244,0,0,0-20-20h-100V56h136Z"/></svg>

<svg xmlns="http://www.w3.org/2000/svg" viewBox="0 0 256 256" fill="currentColor"><path d="M220,32H76A20.1,20.1,0,0,0,56,52V72H36A20.1,20.1,0,0,0,16,92V204a20.1,20.1,0,0,0,20,20H180a20.1,20.1,0,0,0,20-20V184h20a20.1,20.1,0,0,0,20-20V52A20.1,20.1,0,0,0,220,32ZM176,96v16H40V96Zm0,104H40V136H176Zm40-40H200V92a20.1,20.1,0,0,0-20-20H80V56H216Z"/></svg>
